!!!OTL: Xingfuyiang
!!!ARE: Asia, China,ÿJiangsu baoyeng
!! III, 437
!!!SCT: C1787
!!!YEM: Copyright 1995, estate of Helmut Schaffrath.
**kern
*ICvox
*Ivox
*M2/4
*k[b-e-]
*B-:
{8ccc
8bb-
8ddd
8ccc
=1
8bb-
4gg
8gg
=2
8ff
8gg
8bb-
8ccc
=3
2gg}
=4
{8ccc
8bb-
8ddd
8ccc
=5
8bb-
4gg
8gg
=6
8ff
8gg
8bb-
8ccc
=7
2gg}
=8
{8ccc
8bb-
8ccc
8fff
=9
8ddd
8ccc
8bb-
8gg
=10
8ff
4dd
8dd
=11
8gg
8ff
8dd
8cc
=12
16cc
16dd
4.cc}
=13
{8dd
8dd
8ff
8dd
=14
8gg
4gg
8bb-
=15
8ccc
8bb-
8ddd
8ccc
=16
8bb-
4gg}
{8dd
=17
8.ff
16ff
8ff
8bb-
=18
8.gg
16ff
8dd
8cc
=19
4.cc}
{8dd
=20
8.gg
16gg
8ccc
8bb-
=21
8gg
16aa
16gg
8ff
8dd
=22
8ff
8gg
8cc
8bb-
=23
2gg}
=24
{8.gg
16bb-
8ccc
8ddd
=25
8ccc
8bb-
8gg
8ff
=26
8.gg
16ff
8dd
8ff
=27
8gg
8gg
8ff
8bb-
=28
2gg}
==
!!!AGN: Xiaodiao, Qiutiange, Chuanshizi
!!!AMT: simple duple
!!!AIN: vox
!!!EED: Helmut Schaffrath
!!!EEV: 1.0
*-
